X:1
T:Title
%%score { ( 1 3 ) | 2 }
L:1/8
M:4/4
K:Db
V:1 treble nm="Grand Piano"
V:3 treble 
V:2 bass 
V:1
 z4 z2[Q:1/4=100] [FA]2 | [FA]FED F [FA]2 [GB] | [FA][DF][DF][CE] D3 A | %3
 [Fd][Fd][Fd][Ge] [Fd]2 [FA][GB] | [FA]FFD [CE]3 [DF] | [CEG][CEG][Gc][CGB] [DFA]2 [Fd][DF] | %6
 [CE][DF][EG][CA] [DF]3 [FA] | [Fd][Fd][Fd][Ge] [Af] [Fd]2 [DB] |[M:7/8] [DA][DF][CE]>D D3 | %9
[M:1/4] [FA][FA] |[M:4/4] [Fd]>[Fd] [Fd][Ge] [Af]d-[Fd-][Fd-] | [Gd-]2 [Gd-][Gd-] [Fd]2 D>E | %12
 F[FA][FA][GB] [FA] [Fd]2 F |[M:9/8] FEE D [CE]2- [CE][GA][GA] | %14
[M:4/4] [Fd]>[Fd] [Fd][Ge] [Af]d-[Fd-][Fd-] | [Gd-]2 [Gd-][Gd-] [Fd]2 D>E | %16
 F[FA][FA][GB] [FA] [Fd]2 [Ad] |[M:3/4] ee dc [Fd]2 |] %18
V:2
 z4 z2 [D,D]2 | [D,D][D,A,D][D,G,C][D,F,] [D,A,D] [D,D]2 [D,D] | %2
 [D,D][D,A,][A,,A,][A,,G,] [D,F,]3 [D,F,D] | [D,A,][D,A,][D,A,][D,A,] [D,A,]2 [D,D][D,D] | %4
 [D,D][D,A,D][D,A,D][D,F,] [A,,A,]3 [A,,A,] | A,,A,,[A,,A,]A,, D,2 [D,A,][D,A,] | %6
 [A,,A,][A,,A,][A,,A,][A,,A,] [D,A,]3 [D,D] | [D,A,][D,A,][D,A,][D,A,] [D,D] [D,A,]2 [G,,G,] | %8
[M:7/8] [A,,F,][A,,A,][A,,G,]>[D,F,] [D,F,]3 |[M:1/4] [D,A,][D,A,] | %10
[M:4/4] [D,A,]>[D,A,] [D,A,][D,A,] [D,D][D,A,][D,A,][D,A,] | %11
 [G,B,]2 [G,B,][G,B,] [D,A,]2 [D,F,]>[D,G,D] | [D,A,D][D,D][D,D][D,D] [D,D] [D,A,]2 [D,A,D] | %13
[M:9/8] [E,=G,D][E,G,D][E,G,D] [E,G,] [A,,A,]2- [A,,A,][A,C][A,C] | %14
[M:4/4] [D,A,]>[D,A,] [D,A,][D,A,] [D,D][D,A,][D,A,][D,A,] | %15
 [G,B,]2 [G,B,][G,B,] [D,A,]2 [F,A,]>[E,A,C] | [D,A,D][D,D][D,D][D,D] [D,D] [D,A,]2 [F,A,] | %17
[M:3/4][K:treble] [G,B,G][G,B,G] [A,F][K:bass][A,E] [D,A,]2 |] %18
V:3
 x8 | x8 | x8 | x8 | x8 | x8 | x8 | x8 |[M:7/8] x7 |[M:1/4] x2 |[M:4/4] z4 z F z2 | x8 | x8 | %13
[M:9/8] x9 |[M:4/4] z4 z F z2 | x8 | x8 |[M:3/4] x6 |] %18

